svgs/solid/draw-circle.svg

<svg xmlns="http://www.w3.org/2000/svg" viewBox="0 0 512 512"><!-- Font Awesome Pro 6.0.0-alpha2 by @fontawesome - https://fontawesome.com License - https://fontawesome.com/license (Commercial License) --><path d="M512 256C512 229.125 495.375 206.125 471.75 196.625C450.875 120.875 391.125 61.125 315.375 40.25C305.875 16.625 282.875 0 256 0C229.125 0 206.125 16.625 196.625 40.25C120.875 61.125 61.125 120.875 40.25 196.625C16.625 206.125 0 229.125 0 256S16.625 305.875 40.25 315.375C61.125 391.125 120.875 450.875 196.625 471.75C206.125 495.375 229.125 512 256 512C282.875 512 305.875 495.375 315.375 471.75C391.125 450.875 450.875 391.125 471.75 315.375C495.375 305.875 512 282.875 512 256ZM448 240C456.875 240 464 247.125 464 256C464 264.875 456.875 272 448 272S432 264.875 432 256C432 247.125 439.125 240 448 240ZM272 64C272 72.875 264.875 80 256 80C247.125 80 240 72.875 240 64S247.125 48 256 48C264.875 48 272 55.125 272 64ZM64 272C55.125 272 48 264.875 48 256C48 247.125 55.125 240 64 240S80 247.125 80 256C80 264.875 72.875 272 64 272ZM240 448C240 439.125 247.125 432 256 432C264.875 432 272 439.125 272 448S264.875 464 256 464C247.125 464 240 456.875 240 448ZM305.125 407.5C293.375 393.25 275.875 384 256 384C236.125 384 218.625 393.25 206.875 407.5C158.375 391.625 120.375 353.625 104.5 305.125C118.75 293.375 128 275.875 128 256S118.75 218.625 104.5 206.875C120.375 158.375 158.375 120.375 206.875 104.5C218.625 118.75 236.125 128 256 128C275.875 128 293.375 118.75 305.125 104.5C353.625 120.375 391.625 158.375 407.5 206.875C393.25 218.625 384 236.125 384 256S393.25 293.375 407.5 305.125C391.625 353.625 353.625 391.625 305.125 407.5Z"/></svg>

<svg xmlns="http://www.w3.org/2000/svg" viewBox="0 0 512 512"><!--! Font Awesome Pro 6.0.0-alpha3 by @fontawesome - https://fontawesome.com License - https://fontawesome.com/license (Commercial License) --><path d="M512 256c0-26.88-16.6-49.84-40.22-59.34c-20.88-75.75-80.68-135.6-156.4-156.4C305.8 16.6 282.9 0 256 0C229.1 0 206.2 16.6 196.7 40.22c-75.75 20.88-135.6 80.68-156.4 156.4C16.6 206.2 0 229.1 0 256s16.6 49.84 40.22 59.34c20.88 75.75 80.68 135.6 156.4 156.4C206.2 495.4 229.1 512 256 512c26.88 0 49.84-16.6 59.34-40.22c75.75-20.88 135.6-80.68 156.4-156.4C495.4 305.8 512 282.9 512 256zM448 240c8.875 0 16 7.125 16 16c0 8.875-7.125 16-16 16S432 264.9 432 256C432 247.1 439.1 240 448 240zM272 64c0 8.875-7.125 16-16 16C247.1 80 240 72.88 240 64S247.1 48 256 48C264.9 48 272 55.12 272 64zM64 272C55.12 272 48 264.9 48 256c0-8.875 7.125-16 16-16S80 247.1 80 256C80 264.9 72.88 272 64 272zM240 448c0-8.875 7.125-16 16-16c8.875 0 16 7.125 16 16s-7.125 16-16 16C247.1 464 240 456.9 240 448zM305.1 407.5C293.4 393.2 275.9 384 256 384c-19.88 0-37.39 9.235-49.14 23.49C158.4 391.6 120.4 353.6 104.5 305.1C118.8 293.4 128 275.9 128 256S118.8 218.6 104.5 206.9c15.88-48.5 53.85-86.47 102.3-102.3C218.6 118.8 236.1 128 256 128c19.88 0 37.39-9.235 49.14-23.49c48.5 15.88 86.47 53.85 102.3 102.3C393.2 218.6 384 236.1 384 256s9.235 37.39 23.49 49.14C391.6 353.6 353.6 391.6 305.1 407.5z"/></svg>
